X: 1065
T: The Ashton Rose (A28)
N: page A28
N: heptatonic
R: Waltz
C: Leo Brown
M: 3/4
L: 1/8
K: D
a^ga|:"D"b3 z az|{b}a2 z A^GA|g3 z fz|{g}f2 zA^GA|e2 z2 d2|
{e}d4 A2|"G"c2 B4-|B2 b2 ^ab|"A7"c'2 z2 bz|{c'}b2 zA^GA|a2 z2 g2|
{a}g2 z A^GA|e4 A2|"A+"f4 A2|"D"f6|fz a2 ^ga|b3 zaz|
{a}g2 z A^GA|g3 zfz|{g}f3 z{g}fe|d2 f2 a2|d'2 c'2 z=c|"G"b2z gdB|
G2 z2 b2|b2  gd BG|DG Bd gb|"D"az fd AF|DF Ad fa|{ga}g3 ecA|
f2 ce2|"D"{c}dzA zFz|DzA,zDz|F6|{G}F2 Dz Bz|[F6A6]|
A2D2A2|{fg}f2 =f2 e2|d4 A2|"A7"c-c B4-|BzE2zF|G6|
G2E zC2|G6|G2E2G2|c4 {Bc}B2|A2 E3 G|"D"FE D4-|
DzA,3D|F6|{G}F2 D zBz|[F6A6]|f3ff2|
{fg}f2e2d2|"G"B6-|Bz B^G Bc|d6|{e}d2c z d2|"D"d6|
d2 zA^GA|"A"c z{Bc}B2Az|GzFz{EF}E2|"D"D6|[1D2z a^ga:|[2D2z4|
